images/lucy/lucymail.svg

<svg xmlns="http://www.w3.org/2000/svg" width="2796" height="2254" fill="none"><path fill="#ffaff3" stroke="#151515" stroke-width="80" d="M1152.07 221.385c51.39-66.951 156.37-52.057 187.11 26.548l161.15 411.993c19.94 50.977 61.08 90.758 112.71 109.007l417.46 147.576c79.7 28.174 97.89 132.411 32.62 185.821l-342.44 280.26a188.159 188.159 0 0 0-68.95 140.77l-11.38 442.12c-2.17 84.23-95.74 133.91-166.95 88.3l-372.79-238.79a188.635 188.635 0 0 0-155.274-22.03l-424.495 125.67c-81.092 24.01-157.155-49.74-135.808-131.25l112.047-427.84c13.868-52.95 3.981-109.3-27.068-154.39L219.04 840.698c-47.835-69.464-1.366-164.524 83.024-169.417L744.1 645.649c54.661-3.169 105.248-29.935 138.58-73.355l269.39-350.909Z"/><circle cx="799.271" cy="1092.48" r="78.571" fill="#151515" transform="rotate(8.075 799.271 1092.48)"/><circle cx="1435.75" cy="1182.78" r="78.571" fill="#151515" transform="rotate(8.075 1435.75 1182.78)"/><path stroke="#151515" stroke-linecap="round" stroke-width="80" d="M1159.08 1286.53a64.36 64.36 0 0 1-12.81 21.57 64.175 64.175 0 0 1-20.09 15.02 64.07 64.07 0 0 1-24.3 6.19 64.12 64.12 0 0 1-24.83-3.58 64.335 64.335 0 0 1-21.57-12.8 64.443 64.443 0 0 1-15.02-20.09 64.351 64.351 0 0 1-6.19-24.31"/><path fill="#F2FFFE" d="m2646.23 1059.81-779.71-407.971 163.04 393.851 61.83 149.38 156.63-38.18 398.21-97.08Z"/><path fill="#BDF3FF" d="m2401.03 1530.68 245.2-470.87-398.21 97.08-156.63 38.18-61.83-149.38-163.04-393.851-272.44 472.671 806.95 406.17Z"/><path stroke="#151515" stroke-linejoin="round" stroke-width="80" d="m1882.17 652.127 754.9 394.993c4.9 2.56 6.79 8.6 4.23 13.49l-241.07 460.74c-2.56 4.9-8.61 6.79-13.5 4.23l-754.91-394.99c-4.89-2.56-6.78-8.6-4.22-13.5l241.07-460.739c2.56-4.893 8.6-6.785 13.5-4.224Z"/></svg>

<svg width="2796" height="2254" viewBox="0 0 2796 2254" fill="none" xmlns="http://www.w3.org/2000/svg">
<path d="M1152.07 221.385C1203.46 154.434 1308.44 169.328 1339.18 247.933L1500.33 659.926C1520.27 710.903 1561.41 750.684 1613.04 768.933L2030.5 916.509C2110.2 944.683 2128.39 1048.92 2063.12 1102.33L1720.68 1382.59C1678.31 1417.26 1653.14 1468.65 1651.73 1523.36L1640.35 1965.48C1638.18 2049.71 1544.61 2099.39 1473.4 2053.78L1100.61 1814.99C1054.51 1785.46 997.833 1777.42 945.336 1792.96L520.841 1918.63C439.749 1942.64 363.686 1868.89 385.033 1787.38L497.08 1359.54C510.948 1306.59 501.061 1250.24 470.012 1205.15L219.04 840.698C171.205 771.234 217.674 676.174 302.064 671.281L744.1 645.649C798.761 642.48 849.348 615.714 882.68 572.294L1152.07 221.385Z" fill="#ffaff3" stroke="#151515" stroke-width="80"/>
<ellipse cx="799.271" cy="1092.48" rx="78.5714" ry="78.5714" transform="rotate(8.07516 799.271 1092.48)" fill="#151515"/>
<ellipse cx="1435.75" cy="1182.78" rx="78.5714" ry="78.5714" transform="rotate(8.07516 1435.75 1182.78)" fill="#151515"/>
<path d="M1159.08 1286.53C1156.27 1294.49 1151.91 1301.82 1146.27 1308.1C1140.63 1314.38 1133.8 1319.48 1126.18 1323.12C1118.57 1326.76 1110.31 1328.87 1101.88 1329.31C1093.45 1329.76 1085.01 1328.55 1077.05 1325.73C1069.09 1322.92 1061.76 1318.57 1055.48 1312.93C1049.21 1307.28 1044.1 1300.46 1040.46 1292.84C1036.82 1285.22 1034.72 1276.96 1034.27 1268.53" stroke="#151515" stroke-width="80" stroke-linecap="round"/>
<path d="M2646.23 1059.81L1866.52 651.839L2029.56 1045.69L2091.39 1195.07L2248.02 1156.89L2646.23 1059.81Z" fill="#F2FFFE"/>
<path d="M2401.03 1530.68L2646.23 1059.81L2248.02 1156.89L2091.39 1195.07L2029.56 1045.69L1866.52 651.839L1594.08 1124.51L2401.03 1530.68Z" fill="#BDF3FF"/>
<path d="M1882.17 652.127L2637.07 1047.12C2641.97 1049.68 2643.86 1055.72 2641.3 1060.61L2400.23 1521.35C2397.67 1526.25 2391.62 1528.14 2386.73 1525.58L1631.82 1130.59C1626.93 1128.03 1625.04 1121.99 1627.6 1117.09L1868.67 656.351C1871.23 651.458 1877.27 649.566 1882.17 652.127Z" stroke="#151515" stroke-width="80" stroke-linejoin="round"/>
</svg>
